src/4-icons/write.svg

<svg width="260" height="260" viewBox="0 0 260 260" fill="none" xmlns="http://www.w3.org/2000/svg">
<path d="M125.963 168.045L121.465 172.554C119.939 174.08 118.127 175.29 116.133 176.116C114.139 176.942 112.002 177.367 109.844 177.367C107.686 177.367 105.549 176.942 103.555 176.116C101.561 175.29 99.7497 174.08 98.2236 172.554C96.6976 171.028 95.487 169.216 94.6611 167.222C93.8352 165.228 93.4102 163.091 93.4102 160.933C93.4102 158.775 93.8352 156.638 94.6611 154.644C95.487 152.65 96.6976 150.839 98.2236 149.313L115.217 132.319" fill="white"/>
<path d="M125.963 168.045L121.465 172.554C119.939 174.08 118.127 175.29 116.133 176.116C114.139 176.942 112.002 177.367 109.844 177.367C107.686 177.367 105.549 176.942 103.555 176.116C101.561 175.29 99.7496 174.08 98.2236 172.554C96.6976 171.028 95.487 169.216 94.6611 167.222C93.8352 165.228 93.4102 163.091 93.4102 160.933C93.4102 158.775 93.8352 156.638 94.6611 154.644C95.487 152.65 96.6976 150.839 98.2236 149.313L115.217 132.319" stroke="black" stroke-width="8" stroke-linecap="round" stroke-linejoin="round"/>
<path d="M131.051 77.3602L83.2097 107.619C81.5917 108.646 79.787 109.344 77.8989 109.673C76.0108 110.002 74.0764 109.955 72.2064 109.535C70.3364 109.115 68.5675 108.331 67.001 107.227C65.4346 106.123 64.1013 104.72 63.0774 103.1V103.1C61.2284 100.175 60.4797 96.6882 60.965 93.2621C61.4502 89.8359 63.1379 86.6939 65.7264 84.3975L110.349 44.8027C112.009 43.3226 114.077 42.3803 116.283 42.1001C118.489 41.8199 120.728 42.215 122.704 43.2333L191.788 78.4997L228.774 199.393L235.241 235.649" stroke="black" stroke-width="8" stroke-linecap="round" stroke-linejoin="round"/>
<path d="M116.057 142.945L104.492 154.511C102.966 156.037 101.154 157.247 99.1601 158.073C97.1662 158.899 95.0292 159.324 92.8711 159.324C90.7129 159.324 88.5759 158.899 86.5821 158.073C84.5882 157.247 82.7765 156.037 81.2505 154.511C78.1734 151.426 76.4453 147.247 76.4453 142.89C76.4453 138.533 78.1734 134.354 81.2505 131.27L98.244 114.276" fill="white"/>
<path d="M116.057 142.945L104.492 154.511C102.966 156.037 101.154 157.247 99.1601 158.073C97.1662 158.899 95.0292 159.324 92.8711 159.324C90.7129 159.324 88.5759 158.899 86.5821 158.073C84.5882 157.247 82.7765 156.037 81.2505 154.511V154.511C78.1734 151.426 76.4453 147.247 76.4453 142.89C76.4453 138.533 78.1734 134.354 81.2505 131.27L98.244 114.276" stroke="black" stroke-width="8" stroke-linecap="round" stroke-linejoin="round"/>
<path d="M30.6097 163.557C28.6458 163.556 26.7177 163.032 25.0235 162.039C23.3293 161.045 21.9303 159.619 20.9704 157.905C20.0104 156.192 19.5242 154.254 19.5616 152.291C19.599 150.327 20.1588 148.409 21.1833 146.734L34.7881 124.472C35.3081 123.617 36.02 122.895 36.8673 122.363L195.926 21.7016C199.427 19.4894 203.662 18.7563 207.703 19.6634C211.743 20.5705 215.259 23.0435 217.478 26.5398L224.795 38.1053C227.009 41.6064 227.742 45.8435 226.833 49.8849C225.924 53.9264 223.447 57.4413 219.947 59.657L60.8881 160.328C59.9895 160.911 58.9575 161.255 57.8892 161.328L31.4994 163.537C31.2095 163.547 30.9096 163.557 30.6097 163.557Z" fill="white"/>
<path d="M204.263 21.7817C206.478 21.7792 208.658 22.3369 210.6 23.403C212.542 24.4691 214.182 26.009 215.369 27.8794L222.686 39.4449C224.543 42.3861 225.158 45.9439 224.395 49.3377C223.632 52.7315 221.555 55.6842 218.618 57.548L59.5589 158.219C59.0129 158.562 58.3922 158.768 57.7495 158.819L31.3397 161.028H30.61C29.0946 161.023 27.6078 160.616 26.3015 159.848C24.9952 159.08 23.9163 157.978 23.1751 156.657C22.4339 155.335 22.057 153.84 22.083 152.325C22.1089 150.81 22.5368 149.329 23.3228 148.033L36.9276 125.772C37.2483 125.246 37.6862 124.801 38.2071 124.472L197.266 23.811C199.36 22.4917 201.788 21.7981 204.263 21.8117V21.7817ZM204.263 16.8136C200.836 16.8093 197.479 17.7839 194.587 19.6226L35.5281 120.254C34.3518 120.995 33.3657 122.001 32.6492 123.193L19.0944 145.424C17.8369 147.478 17.1494 149.83 17.1026 152.239C17.0559 154.647 17.6517 157.024 18.8286 159.125C20.0056 161.226 21.7212 162.976 23.7989 164.195C25.8766 165.413 28.2414 166.055 30.65 166.056C31.0271 166.059 31.4041 166.042 31.7795 166.006L58.1994 163.797C59.6415 163.682 61.0342 163.219 62.2578 162.448L221.287 61.7764C225.343 59.2054 228.213 55.1294 229.267 50.4436C230.32 45.7579 229.47 40.8457 226.904 36.786L219.587 25.2204C217.96 22.6286 215.699 20.4946 213.018 19.0201C210.336 17.5455 207.323 16.7793 204.263 16.7937V16.8136Z" fill="white"/>
<path d="M40.3359 127.851L57.4194 154.84" stroke="black" stroke-width="8" stroke-linecap="round" stroke-linejoin="round"/>
<path d="M57.4197 154.84L186.56 73.1118L216.479 54.1191C217.491 53.4789 218.368 52.6454 219.058 51.6663C219.748 50.6872 220.239 49.5816 220.501 48.4128C220.764 47.244 220.794 46.0349 220.589 44.8546C220.384 43.6742 219.949 42.5459 219.307 41.5339L212.02 29.9884C211.379 28.9755 210.545 28.0988 209.565 27.4084C208.585 26.718 207.478 26.2275 206.309 25.9648C205.139 25.7021 203.929 25.6724 202.748 25.8773C201.567 26.0823 200.438 26.518 199.425 27.1595L40.3363 127.851L26.7315 150.122C26.2903 150.841 26.057 151.668 26.0576 152.511C26.0583 153.354 26.2928 154.181 26.7351 154.899C27.1775 155.617 27.8103 156.198 28.5632 156.577C29.3162 156.957 30.1596 157.121 30.9999 157.049L57.4197 154.84Z" fill="white" stroke="black" stroke-width="8" stroke-linecap="round" stroke-linejoin="round"/>
<path d="M154.632 136.687L130.151 128.791L113.958 102.381C111.745 98.7694 108.254 96.1228 104.18 94.9671C100.105 93.8115 95.7452 94.2312 91.966 96.1431C87.9968 98.1475 84.9805 101.639 83.5744 105.858C82.1682 110.076 82.4862 114.679 84.4589 118.664L116.057 182.47L163.808 235.649" fill="white"/>
<path d="M154.632 136.687L130.151 128.791L113.958 102.381C111.745 98.7694 108.254 96.1228 104.18 94.9671C100.105 93.8115 95.7452 94.2312 91.966 96.1431V96.1431C87.9968 98.1475 84.9805 101.639 83.5744 105.858C82.1682 110.076 82.4862 114.679 84.4589 118.664L116.057 182.47L163.808 235.649" stroke="black" stroke-width="8" stroke-linecap="round" stroke-linejoin="round"/>
</svg>

<svg width="260" height="260" fill="none" xmlns="http://www.w3.org/2000/svg"><path d="m125.963 168.045-4.498 4.509a16.435 16.435 0 0 1-23.241-23.241l16.993-16.994" fill="#fff"/><path d="m125.963 168.045-4.498 4.509a16.435 16.435 0 0 1-23.241-23.241l16.993-16.994" stroke="#000" stroke-width="8" stroke-linecap="round" stroke-linejoin="round"/><path d="M131.051 77.36 83.21 107.62a14.58 14.58 0 0 1-11.004 1.916 14.583 14.583 0 0 1-9.129-6.435v0a14.583 14.583 0 0 1 2.65-18.703l44.622-39.594a10.998 10.998 0 0 1 12.355-1.57L191.788 78.5l36.986 120.893 6.467 36.256" stroke="#000" stroke-width="8" stroke-linecap="round" stroke-linejoin="round"/><path d="m116.057 142.945-11.565 11.566a16.436 16.436 0 0 1-23.242 0 16.456 16.456 0 0 1 0-23.241l16.994-16.994" fill="#fff"/><path d="m116.057 142.945-11.565 11.566a16.436 16.436 0 0 1-23.242 0v0a16.456 16.456 0 0 1 0-23.241l16.994-16.994" stroke="#000" stroke-width="8" stroke-linecap="round" stroke-linejoin="round"/><path d="M30.61 163.557a11.058 11.058 0 0 1-9.64-5.652 11.053 11.053 0 0 1 .213-11.171l13.605-22.262a6.444 6.444 0 0 1 2.08-2.109L195.925 21.702a15.635 15.635 0 0 1 21.552 4.838l7.317 11.565a15.625 15.625 0 0 1-4.848 21.552L60.888 160.328a6.298 6.298 0 0 1-2.999 1l-26.39 2.209c-.29.01-.59.02-.89.02Z" fill="#fff"/><path d="M204.263 21.782a13.138 13.138 0 0 1 11.106 6.097l7.317 11.566a13.134 13.134 0 0 1-4.068 18.103L59.558 158.219a3.996 3.996 0 0 1-1.809.6l-26.41 2.209h-.729a8.556 8.556 0 0 1-7.287-12.995l13.605-22.261c.32-.526.758-.971 1.28-1.3L197.265 23.811a12.993 12.993 0 0 1 6.997-2v-.03Zm0-4.968a17.992 17.992 0 0 0-9.676 2.809L35.528 120.254a8.88 8.88 0 0 0-2.879 2.939l-13.555 22.231a13.555 13.555 0 0 0 11.556 20.632c.377.003.754-.014 1.13-.05l26.42-2.209a8.947 8.947 0 0 0 4.058-1.349L221.287 61.776a18.125 18.125 0 0 0 5.617-24.99l-7.317-11.566a17.995 17.995 0 0 0-15.324-8.426v.02Z" fill="#fff"/><path d="m40.336 127.851 17.083 26.989" stroke="#000" stroke-width="8" stroke-linecap="round" stroke-linejoin="round"/><path d="m57.42 154.84 129.14-81.728 29.919-18.993a9.12 9.12 0 0 0 4.11-9.264 9.106 9.106 0 0 0-1.282-3.321l-7.287-11.546a9.124 9.124 0 0 0-12.595-2.828L40.336 127.85l-13.604 22.271a4.562 4.562 0 0 0 .003 4.777 4.551 4.551 0 0 0 4.265 2.15l26.42-2.209Z" fill="#fff" stroke="#000" stroke-width="8" stroke-linecap="round" stroke-linejoin="round"/><path d="m154.632 136.687-24.481-7.896-16.193-26.41a16.867 16.867 0 0 0-30.384 3.477 16.852 16.852 0 0 0 .885 12.806l31.598 63.806 47.751 53.179" fill="#fff"/><path d="m154.632 136.687-24.481-7.896-16.193-26.41a16.867 16.867 0 0 0-21.992-6.238v0a16.852 16.852 0 0 0-7.507 22.521l31.598 63.806 47.751 53.179" stroke="#000" stroke-width="8" stroke-linecap="round" stroke-linejoin="round"/></svg>
